Simply-Blue-Circles/scalable/apps/vmware-server.svg

<svg xmlns="http://www.w3.org/2000/svg" width="48" height="48" viewBox="0 0 12.7 12.7"><path fill="#2c89a0" d="M6.344.073a6.29 6.29 0 0 0-6.29 6.29 6.29 6.29 0 0 0 6.29 6.288 6.29 6.29 0 0 0 6.29-6.289 6.29 6.29 0 0 0-6.29-6.29zm-.018.936a5.407 5.407 0 0 1 5.407 5.407 5.407 5.407 0 0 1-5.407 5.407A5.407 5.407 0 0 1 .92 6.416 5.407 5.407 0 0 1 6.326 1.01zM3.413 2.55a.862.862 0 0 0-.863.865v5.872c0 .479.385.864.863.864h5.874a.861.861 0 0 0 .863-.864V3.414a.862.862 0 0 0-.863-.864H3.413zm3.406.519h2.676c.12 0 .137.009.137.12v2.71c0 .115 0 .106-.151.106H6.846c-.153 0-.15.005-.15-.156v-2.64c0-.14.003-.14.123-.14zm-3.319 0c.684 0 1.409.01 2.073 0a.431.431 0 1 1 0 .864H4.558l.863.864h.753v.863h-.17c-.345 0-.345 0-.345.346v.177h-.863V5.39l-.864-.864v1.048a.432.432 0 0 1-.864 0c0-.684.01-1.409 0-2.073 0-.238.194-.431.432-.431zm3.887.69v1.556H8.94V3.759H7.387zm-.349 2.76h.864v.793l.863.864V7.128a.432.432 0 0 1 .864 0c0 .684-.01 1.408 0 2.072a.432.432 0 0 1-.432.432c-.684 0-1.409-.01-2.073 0a.432.432 0 0 1 0-.864H8.14l-.864-.863h-.753V7.04h.17c.345 0 .345 0 .345-.345v-.178zm-3.846.177h2.675c.12 0 .137.01.137.121v2.71c0 .115 0 .106-.15.106H3.217c-.153 0-.15.005-.15-.157v-2.64c0-.14.004-.14.124-.14zm.567.691v1.555h1.554V7.386H3.76z"/></svg>

<?xml version="1.0" encoding="UTF-8" standalone="no"?>
<svg
   xmlns:dc="http://purl.org/dc/elements/1.1/"
   xmlns:cc="http://creativecommons.org/ns#"
   xmlns:rdf="http://www.w3.org/1999/02/22-rdf-syntax-ns#"
   xmlns:svg="http://www.w3.org/2000/svg"
   xmlns="http://www.w3.org/2000/svg"
   xmlns:sodipodi="http://sodipodi.sourceforge.net/DTD/sodipodi-0.dtd"
   xmlns:inkscape="http://www.inkscape.org/namespaces/inkscape"
   width="48"
   height="48"
   viewBox="0 0 12.7 12.7"
   version="1.1"
   id="svg4"
   sodipodi:docname="vmware-server.svg"
   inkscape:version="0.92.4 (5da689c313, 2019-01-14)">
  <metadata
     id="metadata10">
    <rdf:RDF>
      <cc:Work
         rdf:about="">
        <dc:format>image/svg+xml</dc:format>
        <dc:type
           rdf:resource="http://purl.org/dc/dcmitype/StillImage" />
        <dc:title></dc:title>
      </cc:Work>
    </rdf:RDF>
  </metadata>
  <defs
     id="defs8" />
  <sodipodi:namedview
     pagecolor="#ffffff"
     bordercolor="#666666"
     borderopacity="1"
     objecttolerance="10"
     gridtolerance="10"
     guidetolerance="10"
     inkscape:pageopacity="0"
     inkscape:pageshadow="2"
     inkscape:window-width="1087"
     inkscape:window-height="480"
     id="namedview6"
     showgrid="false"
     inkscape:zoom="4.9166667"
     inkscape:cx="2.1355932"
     inkscape:cy="24"
     inkscape:window-x="0"
     inkscape:window-y="25"
     inkscape:window-maximized="0"
     inkscape:current-layer="svg4" />
  <path
     d="m 6.344,0.073 a 6.29,6.29 0 0 0 -6.29,6.29 6.29,6.29 0 0 0 6.29,6.288 6.29,6.29 0 0 0 6.29,-6.289 6.29,6.29 0 0 0 -6.29,-6.29 z M 6.326,1.009 A 5.407,5.407 0 0 1 11.733,6.416 5.407,5.407 0 0 1 6.326,11.823 5.407,5.407 0 0 1 0.92,6.416 5.407,5.407 0 0 1 6.326,1.01 Z M 3.413,2.55 A 0.862,0.862 0 0 0 2.55,3.415 v 5.872 c 0,0.479 0.385,0.864 0.863,0.864 H 9.287 A 0.861,0.861 0 0 0 10.15,9.287 V 3.414 A 0.862,0.862 0 0 0 9.287,2.55 Z m 3.406,0.519 h 2.676 c 0.12,0 0.137,0.009 0.137,0.12 v 2.71 c 0,0.115 0,0.106 -0.151,0.106 H 6.846 c -0.153,0 -0.15,0.005 -0.15,-0.156 v -2.64 c 0,-0.14 0.003,-0.14 0.123,-0.14 z m -3.319,0 c 0.684,0 1.409,0.01 2.073,0 a 0.432,0.432 0 1 1 0,0.864 H 4.558 L 5.421,4.797 H 6.174 V 5.66 h -0.17 c -0.345,0 -0.345,0 -0.345,0.346 V 6.183 H 4.796 V 5.39 L 3.932,4.526 v 1.048 a 0.432,0.432 0 0 1 -0.864,0 c 0,-0.684 0.01,-1.409 0,-2.073 C 3.068,3.263 3.262,3.07 3.5,3.07 Z m 3.887,0.69 V 5.315 H 8.94 V 3.759 Z M 7.038,6.519 H 7.902 V 7.312 L 8.765,8.176 V 7.128 a 0.432,0.432 0 0 1 0.864,0 c 0,0.684 -0.01,1.408 0,2.072 A 0.432,0.432 0 0 1 9.197,9.632 c -0.684,0 -1.409,-0.01 -2.073,0 a 0.432,0.432 0 0 1 0,-0.864 H 8.14 L 7.276,7.905 H 6.523 V 7.04 h 0.17 c 0.345,0 0.345,0 0.345,-0.345 V 6.517 Z M 3.192,6.696 h 2.675 c 0.12,0 0.137,0.01 0.137,0.121 v 2.71 c 0,0.115 0,0.106 -0.15,0.106 H 3.217 c -0.153,0 -0.15,0.005 -0.15,-0.157 v -2.64 c 0,-0.14 0.004,-0.14 0.124,-0.14 z M 3.759,7.387 V 8.942 H 5.313 V 7.386 H 3.76 Z"
     id="path2"
     inkscape:connector-curvature="0"
     style="fill:#2c89a0" />
</svg>
